packages/foundations/assets/icons/functional/images/date & time/clock_24_filled.svg

<svg xmlns="http://www.w3.org/2000/svg" width="20" height="20" fill="none"><path fill="#1A1C1F" fill-rule="evenodd" d="M9.4 2.021a8.1 8.1 0 0 0-2.933.817c-1.99.99-3.433 2.673-4.097 4.781-1.323 4.201 1.027 8.682 5.252 10.012 4.198 1.322 8.679-1.03 10.009-5.253a7.85 7.85 0 0 0 .216-3.911c-.652-3.326-3.332-5.874-6.714-6.383-.34-.052-1.43-.091-1.733-.063M11 7.292v2.292l1.1 1.099 1.1 1.1-.708.709-.708.708-1.392-1.391L9 10.417V5h2z"/></svg>

<svg width="20" height="20" viewBox="0 0 20 20" fill="none" xmlns="http://www.w3.org/2000/svg"><path d="M9.400 2.021 C 8.333 2.118,7.380 2.384,6.467 2.838 C 4.477 3.828,3.034 5.511,2.370 7.619 C 1.047 11.820,3.397 16.301,7.622 17.631 C 11.820 18.953,16.301 16.601,17.631 12.378 C 18.033 11.100,18.106 9.785,17.847 8.467 C 17.195 5.141,14.515 2.593,11.133 2.084 C 10.793 2.032,9.703 1.993,9.400 2.021 M11.000 7.292 L 11.000 9.584 12.100 10.683 L 13.200 11.783 12.492 12.492 L 11.784 13.200 10.392 11.809 L 9.000 10.417 9.000 7.708 L 9.000 5.000 10.000 5.000 L 11.000 5.000 11.000 7.292 " fill="#1A1C1F" stroke="none" fill-rule="evenodd"></path></svg>
